X: 681
T: Planxty Corcoran
C:O'Carolan
B:O'Neill's 681
Z: 1997 by John Chambers <jc@trillian.mit.edu>
N:"Animated"
M:6/8
L:1/8
K:Dm
F \
| FEF D2F | FEF DAG | FED CEG | FED CDE |
| FEF G^FG | A^GA d2e | ff/e/d edc | dd/c/A cAG |
| AA/G/F GFE | FF/E/D EDC | DA,^C DFE | D3 D2 ||
|| (D//E//F//G//) \
| AGF (((3G/F/E/)DC) | cCC Cde | fed ed^c | dDD ((9D//E//F//G//A//B//^c//d//e//) ||
| fed ed^c | AGF GFE | gfe fed | FED EDC |
| ff/f/f gg/g/g | aa/a/a bag | fed ed^c | d3 d2 |]


